main-pages/gulp-scss-starter/dist/img/default/offer/services1.svg

<svg width="24" height="24" viewBox="0 0 24 24" fill="none" xmlns="http://www.w3.org/2000/svg">
<path d="M22.0091 6.22362C21.6691 6.53269 21.4525 6.97744 21.4525 7.47959C21.4525 8.42217 22.2156 9.18574 23.1586 9.18574C23.1775 9.18574 23.1962 9.18537 23.2146 9.18465C23.3208 9.62635 23.3971 10.0834 23.4525 10.552C22.8232 10.7967 22.3691 11.3996 22.3691 12.1271C22.3691 12.853 22.8203 13.4541 23.4467 13.6994C23.3798 14.1483 23.2859 14.5886 23.1685 15.0194C23.1239 15.0157 23.0786 15.0139 23.0327 15.0139C22.0902 15.0139 21.3261 15.7764 21.3261 16.7195C21.3261 17.2225 21.5434 17.6731 21.8885 17.9839C21.6459 18.374 21.3745 18.7482 21.0827 19.1126C20.8953 19.0323 20.6853 18.9824 20.4554 18.9824C19.5124 18.9824 18.7493 19.7459 18.7493 20.6885C18.7493 20.91 18.7957 21.1136 18.871 21.2963C18.4755 21.587 18.0581 21.8514 17.6231 22.0923C17.3199 21.7761 16.895 21.5712 16.4096 21.5712C15.4808 21.5712 14.7257 22.312 14.7034 23.2354C14.3395 23.3186 13.9649 23.3815 13.5818 23.4301C13.3349 22.8059 12.7349 22.3555 12.01 22.3555C11.2789 22.3555 10.6691 22.8137 10.4267 23.4504C9.92081 23.3799 9.425 23.2741 8.93974 23.1392C8.94013 23.1263 8.94034 23.1134 8.94034 23.1003C8.94034 22.1574 8.17645 21.3941 7.23371 21.3941C6.76144 21.3941 6.3477 21.5886 6.04717 21.8905C5.70428 21.678 5.3733 21.4423 5.04876 21.191C5.12329 21.0107 5.16996 20.809 5.16996 20.5872C5.16996 19.6445 4.4067 18.881 3.46333 18.881C3.23444 18.881 3.02508 18.931 2.83836 19.0106C2.62691 18.7354 2.42739 18.4505 2.24055 18.1567C2.55613 17.8528 2.75721 17.4274 2.75721 16.9457C2.75721 16.0028 1.99332 15.2395 1.05059 15.2395C1.00716 15.2395 0.964064 15.2412 0.921358 15.2444C0.75048 14.6673 0.623383 14.0722 0.543688 13.4611C1.12983 13.2013 1.55159 12.6277 1.55159 11.926C1.55159 11.2317 1.13707 10.6615 0.559234 10.3983C0.616892 9.98626 0.697004 9.58101 0.797232 9.18293C0.806371 9.18313 0.815567 9.18323 0.824818 9.18323C1.76674 9.18323 2.53144 8.42225 2.53144 7.47859C2.53144 6.98738 2.32226 6.55286 1.99504 6.24641C2.22436 5.85589 2.48133 5.48066 2.75817 5.11583C2.96263 5.20873 3.19159 5.26389 3.43875 5.26389C4.38067 5.26389 5.14537 4.50291 5.14537 3.55925C5.14537 3.30171 5.08634 3.06085 4.98499 2.84644C5.33641 2.57689 5.70525 2.32781 6.08847 2.09813C6.39745 2.43199 6.83866 2.64348 7.33456 2.64348C8.27648 2.64348 9.04118 1.88249 9.04118 0.938836C9.04118 0.904794 9.04008 0.871168 9.03797 0.83798C9.49126 0.714613 9.95441 0.617186 10.4268 0.550383C10.669 1.18815 11.278 1.64696 12.01 1.64696C12.7418 1.64696 13.3514 1.18828 13.5936 0.550207C14.1044 0.622101 14.6047 0.729481 15.094 0.866619C15.0929 0.889889 15.0923 0.913463 15.0923 0.937331C15.0923 1.88068 15.8557 2.64348 16.7989 2.64348C17.2792 2.64348 17.7016 2.44298 18.005 2.13093C18.3694 2.35811 18.7193 2.61083 19.0614 2.8812C18.9688 3.08479 18.9133 3.31307 18.9133 3.55975C18.9133 4.5026 19.6772 5.2659 20.6199 5.2659C20.8631 5.2659 21.0878 5.21223 21.2886 5.12233C21.5481 5.47321 21.7879 5.84153 22.0091 6.22362Z" stroke="#616161"/>
<path d="M18.5653 11.7858C18.5653 15.5257 15.5323 18.5578 11.7905 18.5578C8.04865 18.5578 5.01562 15.5257 5.01562 11.7858C5.01562 8.0459 8.04865 5.01379 11.7905 5.01379C15.5323 5.01379 18.5653 8.0459 18.5653 11.7858Z" stroke="#616161"/>
</svg>

<svg width="24" height="24" viewBox="0 0 24 24" fill="none" xmlns="http://www.w3.org/2000/svg"><path d="M22.01 6.224a1.69 1.69 0 00-.558 1.256 1.705 1.705 0 001.763 1.705c.106.441.182.898.238 1.367a1.686 1.686 0 00-.006 3.147c-.067.45-.161.89-.278 1.32a1.705 1.705 0 00-1.28 2.964c-.243.391-.515.765-.806 1.13a1.583 1.583 0 00-.628-.13c-.943 0-1.706.763-1.706 1.706 0 .221.047.425.122.607-.395.291-.813.555-1.248.796a1.671 1.671 0 00-1.213-.52c-.93 0-1.684.74-1.707 1.663-.364.084-.738.146-1.121.195a1.69 1.69 0 00-3.155.02 11.45 11.45 0 01-1.487-.31v-.04c0-.943-.764-1.706-1.706-1.706-.473 0-.886.195-1.187.497a11.717 11.717 0 01-.998-.7 1.57 1.57 0 00.121-.604c0-.942-.763-1.706-1.707-1.706-.229 0-.438.05-.625.13-.211-.276-.41-.56-.597-.854.315-.304.516-.73.516-1.211a1.706 1.706 0 00-1.836-1.702 11.525 11.525 0 01-.377-1.783 1.672 1.672 0 00.015-3.063c.058-.412.138-.817.238-1.215h.028c.942 0 1.706-.76 1.706-1.704 0-.492-.209-.926-.536-1.233.23-.39.486-.765.763-1.13.205.093.434.148.68.148.943 0 1.707-.761 1.707-1.705 0-.257-.059-.498-.16-.713.351-.27.72-.518 1.103-.748a1.705 1.705 0 002.95-1.26c.453-.123.916-.22 1.389-.288a1.69 1.69 0 003.167 0c.51.072 1.01.18 1.5.317a1.705 1.705 0 001.705 1.777c.48 0 .903-.201 1.206-.513.364.227.714.48 1.056.75a1.631 1.631 0 00-.148.679c0 .943.764 1.706 1.707 1.706.243 0 .468-.054.669-.144.26.351.499.72.72 1.102z" stroke="#616161"/><path d="M18.565 11.786a6.773 6.773 0 01-6.775 6.772 6.773 6.773 0 01-6.774-6.772 6.773 6.773 0 016.774-6.772 6.773 6.773 0 016.775 6.772z" stroke="#616161"/></svg>
